svg/fluentui-system-icons/ic_fluent_pen_off_28_regular.svg

<svg width="28" height="28" viewBox="0 0 28 28" fill="none" xmlns="http://www.w3.org/2000/svg">
<path d="M10.6891 11.7499L2.21967 3.28033C1.92677 2.98743 1.92678 2.51256 2.21967 2.21967C2.51257 1.92677 2.98744 1.92678 3.28033 2.21967L25.7801 24.7198C26.073 25.0127 26.073 25.4876 25.7801 25.7805C25.4872 26.0734 25.0123 26.0734 24.7194 25.7805L16.2498 17.3107L10.0633 23.4974C9.62281 23.9379 9.07632 24.2575 8.47647 24.4254L2.95223 25.9721C2.69131 26.0452 2.41127 25.9718 2.21968 25.7802C2.02809 25.5886 1.95474 25.3086 2.02779 25.0477L3.57462 19.5233C3.74255 18.9235 4.06211 18.3771 4.5025 17.9367L10.6891 11.7499ZM15.1891 16.25L11.7497 12.8106L5.56318 18.9974C5.30493 19.2556 5.11754 19.576 5.01906 19.9277L3.83174 24.1682L8.07205 22.981C8.42382 22.8825 8.74429 22.6951 9.00259 22.4367L15.1891 16.25ZM12.8109 9.62796L13.8716 10.6886L20.3496 4.2104C21.2993 3.2606 22.8392 3.26059 23.789 4.21039C24.7387 5.16014 24.7387 6.69997 23.789 7.64973L17.311 14.1281L18.3716 15.1887L22.2488 11.3113C22.8849 11.9977 22.8693 13.07 22.2019 13.7374L20.2197 15.7197C19.9268 16.0126 19.9268 16.4874 20.2197 16.7803C20.5126 17.0732 20.9874 17.0732 21.2803 16.7803L23.2626 14.7981C24.5158 13.5449 24.5316 11.5228 23.3099 10.2502L24.8497 8.71037C26.3852 7.17482 26.3852 4.68527 24.8497 3.14974C23.3141 1.61414 20.8244 1.61415 19.2889 3.14976L12.8109 9.62796Z" fill="#212121"/>
</svg>

<svg xmlns="http://www.w3.org/2000/svg" width="28" height="28"><path d="M10.69 11.75 2.22 3.28a.75.75 0 1 1 1.06-1.06l22.5 22.5a.75.75 0 0 1-1.06 1.06l-8.47-8.47-6.187 6.187c-.44.44-.987.76-1.587.928l-5.524 1.547a.75.75 0 0 1-.924-.924l1.547-5.525c.168-.6.487-1.146.928-1.586l6.186-6.187Zm4.5 4.5-3.44-3.44-6.187 6.187a2.126 2.126 0 0 0-.544.93l-1.187 4.241 4.24-1.187a2.13 2.13 0 0 0 .93-.544l6.187-6.187Zm-2.38-6.622 1.062 1.06L20.35 4.21a2.432 2.432 0 1 1 3.439 3.44l-6.478 6.478 1.06 1.06 3.878-3.877a1.75 1.75 0 0 1-.047 2.426L20.22 15.72a.75.75 0 1 0 1.06 1.06l1.983-1.982a3.25 3.25 0 0 0 .047-4.548l1.54-1.54a3.932 3.932 0 1 0-5.561-5.56L12.81 9.628Z"/></svg>
